X:960
T: Pride of West Dennis (with piano acc.)
C: BB
L: 1/8
M: 4/4
R: reel
Q: 1/4=175
V: 1 program 1 40 %fiddle
V: 2 bass volume = 50 program 1 01 m=D
K: A
[V:1] E|"D"FEFA "F#m7"cefe|"A"~c2 BA "E"FE ~E2|"D"Fddc "Bm"Bfaf|"F#m7"efcA "E"B2 GB|
[V:2] z|D,2[A2D2F2]F,,2[A2C2E2]|A,,2[A2C2E2]E,2[E2G2B2]|D,2[A2D2F2]B,,2[F2D2B2]|\
F,,2[A2C2E2]E,2[E2G2B2]|
%
[V:1] "F#m"cF ~F2 "E"BE ~E2|"A"Acea  "F#m7"fe ~e2|"Bm"dcBf "F#m7"ecAF|"E7"EdBG "A"A3 :|
[V:2] F,,2[A2C2F2]E,2[E2G2B2]|A,,2[A2C2E2]F,,2[A2C2E2]|B,,2[F2D2B2]F,,2[A2C2E2]|\
E,2[D2G2B2][A,,3E,3C3]:|
%
[V:1] E|"Bm"FB ~B2 "D"dfaf|"E"ecdB "F#m"cAFE|"Bm"FB ~B2 "D"df"A"ec|"Bm7"BAFA "E"B2 AG|
[V:2] z|B,,2[F2D2B2]D,2[A2D2F2]|E,2[E2G2B2]F,,2[A2C2F2]|B,,2[F2D2B2][D,,2A,,2F,2][A,,2E,2C2]|B,,2[F2D2A2]E,2[E2G2B2]|
%
[V:1] "Bm"FB ~B2 "D"dfaf|"E"ecdB "A"cAEA|"D"FD ~D2 "E"GE ~E2|"D"Ad"E"BG "A"A3 :|
[V:2] B,,2[F2D2B2]D,2[A2D2F2]|E,2[E2G2B2]A,,2[A2C2E2]|D,2[A2D2F2]E,2[E2G2B2]|[D,,2A,,2F,2][E,,2B,,2G,2][A,,3E,3C3]:|

%%%%%%%%%%%%%%%%%%%%%%%%%%%%%%%

